core/assets/icons/upload.svg

<svg xmlns="http://www.w3.org/2000/svg" width="24" height="24" fill="none"><g clip-path="url(#a)"><path fill="#191C22" d="M3 19h18v2H3v-2ZM13 5.828V17h-2V5.828L4.929 11.9l-1.414-1.414L12 2l8.485 8.485-1.414 1.414L13 5.83v-.002Z"/></g><defs><clipPath id="a"><path fill="#fff" d="M0 0h24v24H0z"/></clipPath></defs></svg>

<svg width="24" height="24" viewBox="0 0 24 24" xmlns="http://www.w3.org/2000/svg"><g id="upload" clip-path="url(#clip0_3196_9535)"><path id="Vector" d="M3 19H21V21H3V19ZM13 5.828V17H11V5.828L4.929 11.9L3.515 10.486L12 2L20.485 10.485L19.071 11.899L13 5.83V5.828Z"/></g><defs><clipPath id="clip0_3196_9535"><rect width="24" height="24"/></clipPath></defs></svg>
